actions/22x22-light/tools-media-optical-erase.svg

<svg xmlns="http://www.w3.org/2000/svg" viewBox="0 0 22 22">
 <defs id="defs3051">
   <style type="text/css" id="current-color-scheme">
     .ColorScheme-Text {
       color:#4d4d4d;
     }
     </style>
 </defs>
   <path
      style="fill:currentColor;fill-opacity:1;stroke:none"
      d="m11 3c-4.432 0-8 3.568-8 8s3.568 8 8 8 8-3.568 8-8-3.568-8-8-8zm3.800781 6.75h2.5v2.5h-2.5l-1.25-1.25zm-3.800781.25c.553999 0 1 .446001 1 1s-.446001 1-1 1-1-.446001-1-1 .446001-1 1-1z"
      class="ColorScheme-Text" />
</svg>

<svg xmlns="http://www.w3.org/2000/svg" viewBox="0 0 22 22">
  <defs id="defs3051">
    <style type="text/css" id="current-color-scheme">
      .ColorScheme-Text {
        color:#4d4d4d
      }
      </style>
  </defs>
 <path 
     style="fill:currentColor;fill-opacity:1;stroke:none"      
	 class="ColorScheme-Text"
        d="M 11 3 C 6.568 3 3 6.568 3 11 C 3 15.432 6.568 19 11 19 C 15.432 19 19 15.432 19 11 C 19 6.568 15.432 3 11 3 z M 14.800781 9.75 L 17.300781 9.75 L 17.300781 12.25 L 14.800781 12.25 L 13.550781 11 L 14.800781 9.75 z M 11 10 C 11.553999 10 12 10.446001 12 11 C 12 11.553999 11.553999 12 11 12 C 10.446001 12 10 11.553999 10 11 C 10 10.446001 10.446001 10 11 10 z "
     />
</svg>
